svg/color/ach.svg

<?xml version="1.0" encoding="UTF-8" ?>
<!DOCTYPE svg PUBLIC "-//W3C//DTD SVG 1.1//EN" "http://www.w3.org/Graphics/SVG/1.1/DTD/svg11.dtd">
<svg width="250pt" height="250pt" viewBox="0 0 250 250" version="1.1" xmlns="http://www.w3.org/2000/svg">
<g id="#ffffffff">
<path fill="#ffffff" opacity="1.00" d=" M 0.00 0.00 L 250.00 0.00 L 250.00 250.00 L 0.00 250.00 L 0.00 0.00 M 98.82 80.76 C 97.43 83.31 95.43 85.86 95.69 88.93 C 95.80 110.99 95.58 133.06 95.80 155.11 C 106.95 148.02 119.62 142.82 133.00 142.59 C 140.29 142.35 147.41 144.15 154.39 146.04 C 154.51 126.33 154.38 106.63 154.45 86.92 C 154.62 85.38 154.09 83.95 153.32 82.65 C 144.70 67.60 136.05 52.56 127.49 37.46 C 126.88 36.40 126.04 35.50 125.21 34.61 C 116.34 49.95 107.66 65.40 98.82 80.76 M 72.35 126.10 C 57.43 152.20 42.28 178.17 27.21 204.19 C 25.65 206.79 24.15 209.44 22.90 212.20 C 40.10 212.22 57.33 212.51 74.53 212.06 C 74.36 182.35 74.65 152.63 74.38 122.92 C 73.67 123.96 72.98 125.01 72.35 126.10 M 175.59 124.01 C 175.57 153.42 175.52 182.83 175.62 212.24 C 192.78 212.26 209.95 212.36 227.11 212.19 C 226.38 210.58 225.61 208.99 224.75 207.46 C 209.59 181.25 194.29 155.12 179.29 128.81 C 178.19 127.14 177.59 124.84 175.59 124.01 M 125.37 163.40 C 113.28 166.00 102.81 175.01 98.44 186.58 C 95.20 194.88 95.07 204.26 98.05 212.66 C 116.76 212.74 135.48 212.56 154.20 212.75 C 154.74 198.18 154.31 183.58 154.41 168.99 C 145.97 163.43 135.29 160.99 125.37 163.40 Z" />
</g>
<g id="#020041ff">
<path fill="#020041" opacity="1.00" d=" M 98.82 80.76 C 107.66 65.40 116.34 49.95 125.21 34.61 C 126.04 35.50 126.88 36.40 127.49 37.46 C 136.05 52.56 144.70 67.60 153.32 82.65 C 154.09 83.95 154.62 85.38 154.45 86.92 C 154.38 106.63 154.51 126.33 154.39 146.04 C 147.41 144.15 140.29 142.35 133.00 142.59 C 119.62 142.82 106.95 148.02 95.80 155.11 C 95.58 133.06 95.80 110.99 95.69 88.93 C 95.43 85.86 97.43 83.31 98.82 80.76 Z" />
<path fill="#020041" opacity="1.00" d=" M 72.35 126.10 C 72.98 125.01 73.67 123.96 74.38 122.92 C 74.65 152.63 74.36 182.35 74.53 212.06 C 57.33 212.51 40.10 212.22 22.90 212.20 C 24.15 209.44 25.65 206.79 27.21 204.19 C 42.28 178.17 57.43 152.20 72.35 126.10 Z" />
<path fill="#020041" opacity="1.00" d=" M 175.59 124.01 C 177.59 124.84 178.19 127.14 179.29 128.81 C 194.29 155.12 209.59 181.25 224.75 207.46 C 225.61 208.99 226.38 210.58 227.11 212.19 C 209.95 212.36 192.78 212.26 175.62 212.24 C 175.52 182.83 175.57 153.42 175.59 124.01 Z" />
<path fill="#020041" opacity="1.00" d=" M 125.37 163.40 C 135.29 160.99 145.97 163.43 154.41 168.99 C 154.31 183.58 154.74 198.18 154.20 212.75 C 135.48 212.56 116.76 212.74 98.05 212.66 C 95.07 204.26 95.20 194.88 98.44 186.58 C 102.81 175.01 113.28 166.00 125.37 163.40 Z" />
</g>
</svg>

<?xml version="1.0" encoding="utf-8"?>
<!-- Generator: Adobe Illustrator 26.0.3, SVG Export Plug-In . SVG Version: 6.00 Build 0)  -->
<svg version="1.1" id="Layer_1" xmlns="http://www.w3.org/2000/svg" xmlns:xlink="http://www.w3.org/1999/xlink" x="0px" y="0px"
	 viewBox="0 0 250 250" style="enable-background:new 0 0 250 250;" xml:space="preserve">
<style type="text/css">
	.st0{fill:#020041;}
</style>
<g id="_x23_020041ff">
	<path class="st0" d="M98.8,80.8c8.8-15.4,17.5-30.8,26.4-46.2c0.8,0.9,1.7,1.8,2.3,2.8c8.6,15.1,17.2,30.1,25.8,45.2
		c0.8,1.3,1.3,2.7,1.1,4.3c-0.1,19.7,0.1,39.4-0.1,59.1c-7-1.9-14.1-3.7-21.4-3.4c-13.4,0.2-26.1,5.4-37.2,12.5
		c-0.2-22.1,0-44.1-0.1-66.2C95.4,85.9,97.4,83.3,98.8,80.8z"/>
	<path class="st0" d="M72.3,126.1c0.6-1.1,1.3-2.1,2-3.2c0.3,29.7,0,59.4,0.2,89.1c-17.2,0.4-34.4,0.2-51.6,0.1
		c1.2-2.8,2.8-5.4,4.3-8C42.3,178.2,57.4,152.2,72.3,126.1z"/>
	<path class="st0" d="M175.6,124c2,0.8,2.6,3.1,3.7,4.8c15,26.3,30.3,52.4,45.5,78.7c0.9,1.5,1.6,3.1,2.4,4.7
		c-17.2,0.2-34.3,0.1-51.5,0.1C175.5,182.8,175.6,153.4,175.6,124z"/>
	<path class="st0" d="M125.4,163.4c9.9-2.4,20.6,0,29,5.6c-0.1,14.6,0.3,29.2-0.2,43.8c-18.7-0.2-37.4,0-56.1-0.1
		c-3-8.4-2.9-17.8,0.4-26.1C102.8,175,113.3,166,125.4,163.4z"/>
</g>
</svg>
